X:20
T:Aisoun
R:Valse
C:S. Berardo
A:Piemont (Italie)
S:Lou Dalfin
D:Gibous bagase e bandi
G:Accordion
%%MIDI program 21 %Accordian
M:3/4
L:1/8
Q:440
K:C
[A,2c2A,2][A,E]B[EAA,]B|[A,2c2A,2][A,E]B[EAA,]B|[A,2A2A,2][A,2E2][A,2E2]|[A,2A,2][A,2E2][A,2E2]|[G2D,2D,2][A,2D,2][E2A2A,2]|[c2D,2D,2][A,2B2D,2][A,2G2D,2]| \
[A,2E2A,2][A,2E2][A,2E2]|[A,2E2A,2][A,2E2][A,2E2]|[A,2c2A,2][A,E]B[EAA,]B|[A,2c2A,2][A,E]B[EAA,]B|[A,2A2A,2][A,2E2][A,2E2]|[A,2A,2][A,2E2][A,2E2]|[G2D,2D,2][E2A2A,2][A,2G2D,2]| \
[A,2c2A,2][A,2E2][A,2B2D,2]|[A,2A2A,2][A,2E2][A,2E2]|[A,2A,2][A,2E2][A,2E2]|[A,2c2A,2][A,E]B[EAA,]B|[A,2c2A,2][A,E]B[EAA,]B|[A,2A2A,2][A,2E2][A,2E2]| \
[A,2A,2][A,2E2][A,2E2]|[G2D,2D,2][A,2D,2][E2A2A,2]|[c2D,2D,2][A,2B2D,2][A,2G2D,2]|[E2D,2D,2][A,2B2D,2][A,2c2D,2]|[d2D,2D,2][A,2c2D,2][A,2B2D,2]|[A,2c2A,2][A,E]B[EAA,]B| \
[A,2c2A,2][A,E]B[EAA,]B|[A,2A2A,2][A,2E2][A,2E2]|[A,2A,2][A,2E2][A,2E2]|[G2D,2D,2][E2A2A,2][A,2G2D,2]|[A,2c2A,2][A,2E2][A,2B2D,2]|[A,2A2A,2][A,2E2][A,2E2]| \
[A,2A,2][E2A2A,2][E2B2A,2]|[A,2c2A,2][A,2E2][E2A2A,2]|[A,2c2A,2][A,E]A[EcA,]d|[A,2e2A,2][A,2E2][A,2E2]|[A,2A,2][E2c2A,2][E2e2A,2]|[d2D,2D,2][A,2D,2][A,2D,2]| \
[D,2D,2][A,2c2D,2][A,2B2D,2]|[A,2c2A,2][E2A2A,2][A,2E2]|[A,2A,2][E2A2A,2][E2B2A,2]|[A,2c2A,2][A,2E2][E2A2A,2]|[A,2c2A,2][A,E]A[EcA,]d|[A,2e2A,2][A,2E2][A,2E2]| \
[A,2A,2][E2c2A,2][E2e2A,2]|[d2D,2D,2][A,2D,2][A,2D,2]|[D,2D,2][A,2c2D,2][A,2B2D,2]|[A,2A2A,2][A,2E2][A,2E2]|z6| \
Z:Created with TablEdit http://www.tabledit.com/
